X: 104
T: Arazbâr Seyir
C: Erol Bingöl
O: Turkey
F: http://compmusic.upf.edu/node/140
N: arazbar--seyir--sofyan--1--erol_bingol
N: makam= arazbar
N: form= seyir
N: usul= sofyan = 4/4
M: 4/4
L: 1/16
K: C _2/4B _2/4e  
Q: 1/4=60
%%MIDI tuningsystem comma53
f4 g4 g6a2  | g3f e2f2 g8  | f2g2 a2_b2 a2g2 g2f2  | \
w:   |   |   | 
_b2a2 a2g2 g2a2 g2f2  | 
w:   | 
f3e feed d8  | c3d e2f2 g4 a4  | g3f e2f2 e4 d4  | \
w:   |   |   | 
d2e2 f2g2 f2e2 e2d2  | 
w:   | 
d2c2 e2dc c8  | c2d2 c2B2 c4 d4  | d2f2 =e2d2 d2e2 d2c2  | \
w:   |   |   | 
B2d4cB B6A2  | 
w:   | 
c3B c2d2 e2d2 c2B2  | d2c4B2 B2A2 B2c2  | \
w:   |   | 
B3A G2A2 G4 A4  | 
w:   | 
A2c4BA A8  | |


